!!!COM: Gabriel Faure/
!!!CNT: Francais
!!!TXO: Francais
!!!OTL: Clair de Lune
!!!LYR: Paul Verlaine
!!!OPS: Op. 46
!!!ONM: No. 2
!!!ENC: Jacob Pegg
!!!YOR: Album of Twenty Songs (Vingt Me/lodies,) Volume II
!!!YOR: Edward B. Marks Music Corporation, RCA Building, Radio
!!!YOR: City, New York 20, N.Y.
!!!ODT: 1887/
!!NB: Vocal melody and text only encoded.
!!NB: First instance of melodic material only encoded.
**kern	**silbe
*clef G2	*
*k[b-e-a-]	*
*M3/4	*
*MM78	*
!!created: 2/29/04 9:03 PM
!!proofed and posted: 3/1/04 12:10 AM
!!edit time: 49 min.
=12	=12
4r	.
4r	.
{4g	{Vo-
=13	=13
4dd	-tre a^-
8ee-	-me est
8cc	un
8dd	pa-
8bn	-y-
=14	=14
4bn	-sa-
8g	-ge
8an	choi-
4bn}	-si,}
=15	=15
8r	.
{8dd	{Que
8ee-	vont
8cc	char-
4dd	-mant
=16	=16
4bn	mas-
4g	-ques
12g	et
12an	ber-
12bn	-ga-
=17	=17
4g	-mas-
[4a-	-ques
8a-]}	|}
8r	.
=18	=18
4r	.
{4cc	{Jou-
8ff	-ant
8dd	du
=19	=19
2cc	luth
8a-	et
8b-	dan-
=20	=20
4.cc}	-sant,}
{8cc	{Et
8dd	qua-
8ee-	-si
=21	=21
4ee-	Tris-
4b-	-tes
4ee-	sous
=22	=22
8dd	leurs
8cc	de/-
8b-	-gui-
8b-	-se-
8cc	-ments
8a-	fan-
=23	=23
2b-	-tas-
4g}	-ques!}
=24	=24
2.r	.
=25	=25
4r	.
2r	.
=26	=26
{4ee-	{Tout
8dd	en
8dd	chan-
4gg	-tant,
=27	=27
8ff	sur
8ff	le
16ff	mo-
16een	-de
8dd	mi-
4cc}	-neur,}
=28	=28
8r	.
{8cc	{L'a-
8b-	-mour
8ee-	vain-
[4ee-	-quer
=29	=29
8ee-]	|
8dd	et
(16cc	la
16b-)	|
8a-	vie
8g	op-
8g	-por-
=30	=30
2g	-tu-
4g}	-ne,}
=31	=31
2.r	.
=32	=32
{4cc	{Ils
4b-	n'ont
4ee-	pas
=33	=33
8ee-	l'air
8dd	de
(16cc	croire
16b-)	|
8a-	a\
8g	leur
8g	bon-
=34	=34
4.g}	-heur,}
{8an	{Et
8bn	leur
8dd	chan-
=35	=35
8gg	-son
8gg	se
8ff	me^le
8ee-	au
8dd	clair
8bn	de
=36	=36
2g	lu-
4g}	-ne!}
=37	=37
2r	.
4r	.
=38	=38
4r	.
2r	.
=39	=39
4r	.
4r	.
{4cc	{Au
=40	=40
4.ee-	cal-
8ddn	-me
8cc	clair
8b-	de
=41	=41
2a-	lu-
4b-	-ne,
=42	=42
4.cc	tris-
8ee-	-te et
4ee-}	beau,}
=43	=43
4r	.
4r	.
{4b-	{Qui
=44	=44
8cc	fait
8ee-	re^-
4ee-	-ver
8ddn	les
8cc	oi-
=45	=45
2b-	-seaux
8a-	dans
8b-	les
=46	=46
2.cc	ar-
=47	=47
4cc}	-bres,}
4r	.
4r	.
=48	=48
{4cc	{Et
8g	san-
8cc	-glo-
8b-	-ter
8a-	d'ex-
=49	=49
4.cc	-ta-
8cc	-se
8b-	les
8a-	jets
=50	=50
2.g}	d'eau,}
=51	=51
2.r	.
=52	=52
{4cc	{Les
4cc	grands
8dd	jets
8ee-	d'eau
=53	=53
2ee-	svel-
4cc	-tes
=54	=54
(8ee-	par-
8ff)	|
(8gg	-mi
8ee-)	|
(8b-	les
8g)	|
=55	=55
2.g	mar-
=56	=56
2.g}	-bres!}
*-	*-
